X:192
T: ES WAR EINE REICHE JUEDIN
N: E0098E
O: Europa, Mitteleuropa, Deutschland, Oberlahnkreis
R: erzaehlendes Volks - Lied, Sage, Liebe, Leid
M: 6/8
L: 1/16
K: D
D2 | F4A2E4G2 | FED2z6
A2 | d3cB2c4B2 | A6z4
F2 | A4A2d4dd | B6B4
B2 | A2G2F2A2B2G2 | A4d2d4
d2 | c2c2B2c4B2 | A6z4

@@@ Tune index: 3842
